!!!OTL: LILLE DU ALLERSCHOENSTE STADT
!!!ARE: Europa, Mitteleuropa, Deutschland
!!!SCT: E0323A
!!!YEM: Copyright 1995, estate of Helmut Schaffrath.
**kern
*ICvox
*Ivox
*M4/4
*k[b-e-]
*B-:
=1
{4.b-
8f
4d
4f
=2
4b-
4b-
4b-
4r}
=3
{4dd
4dd
4cc
4r
=4
4ee-
4dd
4cc
4r}
=5
{4cc
4cc
4cc
4ff
=6
8cc
8b-
8a
8g
4a
4f}
=7
{4cc
4cc
4cc
4ff
=8
8cc
8b-
8a
8g
4a
4f}
=9
{4b-
4b-
4cc
4cc
=10
4dd
4dd
4cc
4r
=11
4dd
4dd
4cc
4r}
=12
{4.ff
8ee-
4dd
4cc
=13
4b-
4a
4b-
4r}
==
!!!AGN: historisches Lied, Festung Lille (1708)
!!!ONB: ESAC (Essen Associative Code) Database: ERK1
!!!AMT: simple quadruple
!!!AIN: vox
!!!EED: Helmut Schaffrath
!!!EEV: 1.0
*-
